assets/value.svg

<svg fill="none" height="62" viewBox="0 0 62 62" width="62" xmlns="http://www.w3.org/2000/svg"><g fill="#4f86d9" fill-opacity=".8"><path d="m52.6879 36.1102-.2873.155c-1.1603-1.4081-3.1706-1.9538-4.7021-1.1776-.0055.0027-.0109.0056-.0163.0084l-.6781.3651c-.8087-.6848-1.809-1.1034-2.8644-1.1987-1.0554-.0954-2.1145.1371-3.0329.6659l-3.6515 1.9859h-4.8591c-1.0521-.0014-2.0904-.2393-3.0382-.6961l-.6684-.3234c-1.9031-.9259-4.0252-1.3071-6.1315-1.1014s-4.1146.9903-5.8026 2.267c-.0158.0121-.0313.0242-.0461.0379l-1.6138 1.4366c-.6099.5417-1.3308.9435-2.1123 1.1774l-.9165-3.0087c-.0454-.1489-.1375-.2793-.2626-.372-.1251-.0926-.2767-.1426-.4324-.1426h-7.80482c-.10284 0-.2045.0218-.29827.064s-.17752.1039-.24569.1809c-.06818.0769-.11923.1675-.14979.2657s-.03993.2018-.02749.3038l2.60158 21.3319c.02148.1762.10669.3384.23956.4561.13287.1176.3042.1826.48168.1826h11.70664c.1135 0 .2255-.0266.3269-.0777s.1894-.1253.257-.2165c.0675-.0913.1128-.1971.1321-.309.0192-.1118.012-.2267-.0211-.3353l-1.5379-5.0465 4.7898-3.0273c.6409-.3546 1.3927-.4519 2.1028-.2721.015.0037.0301.0071.0454.0098l9.7431 1.7941c2.6478.4738 5.3777.0884 7.7908-1.1.0308-.0152.0605-.0326.0889-.0521l16.8518-11.5707c.1527-.1048.2596-.264.2988-.445.0393-.1809.0079-.3701-.0876-.5287-.6131-1.0213-1.5967-1.7666-2.7457-2.0808s-2.3749-.1731-3.4224.3941zm-4.3251.2698c.8858-.4436 2.0009-.08 2.7132.5997l-6.3904 3.4476-.3754.1977c-.2023-.5745-.498-1.1118-.8752-1.5901zm-6.5528-.1799c.0057-.0032.0121-.0064.0172-.0098.5724-.3308 1.223-.502 1.8841-.4958.661.0062 1.3083.1896 1.8743.5312l-3.2491 1.7493c-.6194-.4521-1.3261-.7702-2.0753-.934zm-34.79868 21.3206-2.42369-19.8787h6.44567l6.0608 19.8787zm34.00118-8.4076c-2.1217 1.0328-4.5164 1.3655-6.8392.9503l-9.7192-1.7897c-1.069-.264-2.1984-.1109-3.1587.428-.0112.0062-.0225.013-.0335.02l-4.4702 2.826-3.1848-10.4445c.9821-.2959 1.8878-.8025 2.654-1.4842l1.5911-1.4168c1.4741-1.1083 3.2255-1.7881 5.0612-1.9647s3.6846.1569 5.3429.9638l.6683.3234c1.1452.5519 2.3998.8394 3.671.8411h6.4815c.9526.0013 1.8749.3343 2.6085.9418.7337.6075 1.2329 1.4515 1.4119 2.387l-4.6979-.2125c-1.7078-.0767-3.4191.0023-5.1126.2363-.1893.0281-.36.1298-.4748.2831-.1148.1532-.1644.3456-.1382.5352.0263.1897.1264.3613.2785.4776s.344.1678.5339.1434c1.6056-.2219 3.2282-.2968 4.8475-.2238l5.5286.2501c.011 0 .0221.0007.033.0007.1927 0 .3775-.0765.5137-.2128.1363-.1363.2128-.3211.2128-.5138 0-.1175-.0049-.234-.0121-.3499l.7582-.3996 8.0102-4.3202c.6152-.3331 1.3232-.4537 2.0139-.343.6908.1108 1.3256.4466 1.8059.9553z"/><path d="m9.32108 54.515c0 .4524.13415.8946.3855 1.2708s.60862.6694 1.02662.8425c.4179.1731.8779.2184 1.3216.1302.4437-.0883.8513-.3062 1.1712-.6261s.5378-.7275.626-1.1712c.0883-.4437.043-.9036-.1301-1.3216-.1732-.418-.4664-.7752-.8425-1.0266-.3762-.2513-.8184-.3855-1.2709-.3855-.6064.0007-1.1879.2419-1.6167.6707-.42884.4289-.67005 1.0103-.67072 1.6168zm2.28742-.8344c.1651 0 .3264.049.4636.1406.1372.0917.2441.222.3073.3745.0631.1524.0796.3202.0474.482-.0322.1619-.1116.3105-.2283.4272s-.2653.1962-.4272.2284c-.1618.0322-.3296.0156-.4821-.0475-.1524-.0632-.2827-.1701-.3744-.3073s-.1406-.2985-.1406-.4635c.0004-.2212.0884-.4331.2448-.5895.1564-.1563.3684-.2443.5895-.2446z"/><path d="m36.5245 10.9354v-2.3943c-.0068-1.4582-.5909-2.85435-1.6244-3.88304-1.0335-1.0287-2.4324-1.60621-3.8906-1.60621s-2.8571.57751-3.8906 1.60621c-1.0335 1.02869-1.6176 2.42484-1.6244 3.88304v2.3943c.0068 1.4582.5909 2.8543 1.6244 3.883s2.4324 1.6062 3.8906 1.6062 2.8571-.5775 3.8906-1.6062 1.6176-2.4248 1.6244-3.883zm-9.5769 0v-2.3943c.0059-1.07344.4364-2.10092 1.1975-2.8579.7611-.75697 1.7909-1.18189 2.8644-1.18189s2.1033.42492 2.8644 1.18189c.7611.75698 1.1917 1.78446 1.1975 2.8579v2.3943c-.0058 1.0734-.4364 2.1009-1.1975 2.8579-.7611.7569-1.7909 1.1819-2.8644 1.1819s-2.1033-.425-2.8644-1.1819c-.7611-.757-1.1916-1.7845-1.1975-2.8579z"/><path d="m22.12 31.4148h17.7792c.1927 0 .3775-.0766.5137-.2129.1363-.1362.2128-.321.2128-.5137v-1.6677h12.1712c.1927 0 .3775-.0766.5137-.2128.1363-.1363.2128-.3211.2128-.5138v-4.7159c-.0008-1.3837-.5283-2.7153-1.4753-3.7242-.9471-1.0089-2.2427-1.6194-3.6237-1.7075-.3875-.0285-.5867.2168-.7482.4139-.3215.3927-.7283.7069-1.1896.9186-.4612.2116-.9647.3152-1.4721.3028-.5074-.0123-1.0052-.1404-1.4556-.3743-.4504-.234-.8414-.5677-1.1433-.9756-.0693-.0939-.1603-.1697-.2652-.221-.1048-.0513-.2205-.0765-.3372-.0736-.9438.0212-1.8655.29-2.6727.7797-.5329-.6197-1.1847-1.1261-1.9169-1.4892-.7322-.3632-1.5298-.5757-2.3456-.625-.3754-.0152-.5652.2126-.7492.4359-.3771.461-.8545.8297-1.3958 1.0781-.5413.2485-1.1321.3701-1.7275.3555-.5954-.0145-1.1796-.1648-1.7081-.4394-.5285-.2745-.9874-.6661-1.3416-1.1449-.0692-.094-.1602-.1699-.2651-.2212s-.2206-.0764-.3373-.0733c-1.5934.0368-3.1086.6978-4.2195 1.8406-.0918.0939-.1789.1911-.2638.2898-.7502-.4568-1.6005-.7237-2.4772-.7777-.3862-.0284-.5868.2169-.7482.4139-.3215.3928-.7283.7069-1.1895.9186-.4613.2117-.9648.3153-1.4721.3029-.5074-.0124-1.0052-.1404-1.4556-.3744-.4504-.2339-.8414-.5676-1.1433-.9756-.0694-.0937-.1604-.1695-.2653-.2207-.1048-.0513-.2204-.0766-.3371-.0739-1.4192.0361-2.7681.6252-3.7592 1.6417-.99106 1.0165-1.54583 2.3799-1.54604 3.7995v4.7159c0 .1927.07655.3775.21281.5138.13626.1362.32106.2128.51375.2128h12.19028v1.6677c0 .1927.0765.3775.2128.5137.1363.1363.3211.2129.5138.2129zm19.3829-11.8016c.448.5084.9987.916 1.6159 1.1957.6172.2798 1.2867.4254 1.9643.4271.6776.0018 1.3479-.1403 1.9665-.4168s1.1715-.6812 1.6221-1.1872c.9448.1425 1.8072.619 2.4308 1.343.6235.724.9669 1.6475.9678 2.603v3.9894h-11.4446v-4.6611c.0008-.9675-.2294-1.9213-.6714-2.782.4748-.2768 1.0023-.451 1.5486-.5111zm-14.4627-1.3448c.5024.5816 1.1238 1.0485 1.8222 1.3691.6985.3206 1.4576.4875 2.2261.4893.7685.0019 1.5284-.1614 2.2283-.4787.7-.3173 1.3236-.7812 1.8287-1.3604 1.1157.1543 2.1379.7068 2.8781 1.5557.7402.8488 1.1485 1.9367 1.1495 3.0629v7.0553h-16.3266v-7.0553c.0072-1.1532.4387-2.2634 1.2122-3.1188s1.8348-1.3962 2.9815-1.5191zm-17.11051 9.299v-3.9894c.00614-.9789.36951-1.9219 1.02171-2.6519.6523-.7299 1.5487-1.1966 2.5208-1.3124.4479.5082.9986.9157 1.6157 1.1953s1.2865.4251 1.964.4269c.6775.0017 1.3476-.1404 1.9661-.4169s1.1713-.6811 1.6218-1.187c.5003.0748.9816.2446 1.418.5003-.438.859-.6658 1.8098-.6644 2.774v4.6611z"/><path d="m49.9335 13.0998v-2.0958c0-1.30426-.5181-2.55513-1.4404-3.47741s-2.1732-1.44041-3.4775-1.44041-2.5551.51813-3.4774 1.44041-1.4404 2.17315-1.4404 3.47741v2.0958c0 1.3043.5181 2.5552 1.4404 3.4775.9223.9222 2.1731 1.4404 3.4774 1.4404s2.5552-.5182 3.4775-1.4404c.9223-.9223 1.4404-2.1732 1.4404-3.4775zm-8.3826 0v-2.0958c0-.9189.365-1.80013 1.0148-2.4499.6498-.64976 1.531-1.01479 2.4499-1.01479s1.8002.36503 2.45 1.01479c.6497.64977 1.0148 1.531 1.0148 2.4499v2.0958c0 .9189-.3651 1.8002-1.0148 2.4499-.6498.6498-1.5311 1.0148-2.45 1.0148s-1.8001-.365-2.4499-1.0148c-.6498-.6497-1.0148-1.531-1.0148-2.4499z"/><path d="m21.9022 13.0998v-2.0958c0-.6458-.1272-1.28528-.3743-1.88194-.2472-.59666-.6094-1.13881-1.0661-1.59547-.4567-.45667-.9988-.81891-1.5955-1.06606-.5966-.24714-1.2361-.37435-1.8819-.37435-.6459 0-1.2854.12721-1.882.37435-.5967.24715-1.1388.60939-1.5955 1.06606-.4567.45666-.8189.99881-1.0661 1.59547-.2471.59666-.3743 1.23614-.3743 1.88194v2.0958c0 .6458.1272 1.2853.3743 1.882.2472.5967.6094 1.1388 1.0661 1.5955.4567.4566.9988.8189 1.5955 1.066.5966.2472 1.2361.3744 1.882.3744.6458 0 1.2853-.1272 1.8819-.3744.5967-.2471 1.1388-.6094 1.5955-1.066.4567-.4567.8189-.9988 1.0661-1.5955.2471-.5967.3743-1.2362.3743-1.882zm-8.3826 0v-2.0958c0-.9189.3651-1.80013 1.0148-2.4499.6498-.64976 1.5311-1.01479 2.45-1.01479s1.8001.36503 2.4499 1.01479c.6498.64977 1.0148 1.531 1.0148 2.4499v2.0958c0 .455-.0896.9055-.2637 1.3259-.1742.4204-.4294.8023-.7511 1.124-.3217.3218-.7037.577-1.124.7511-.4204.1741-.8709.2637-1.3259.2637s-.9056-.0896-1.3259-.2637c-.4204-.1741-.8024-.4293-1.1241-.7511-.3217-.3217-.5769-.7036-.751-1.124-.1742-.4204-.2638-.8709-.2638-1.3259z"/></g></svg>

<svg width="62" height="62" viewBox="0 0 62 62" fill="none" xmlns="http://www.w3.org/2000/svg">
<path d="M52.6879 36.1102L52.4006 36.2652C51.2403 34.8571 49.23 34.3114 47.6985 35.0876C47.693 35.0903 47.6876 35.0932 47.6822 35.096L47.0041 35.4611C46.1954 34.7763 45.1951 34.3577 44.1397 34.2624C43.0843 34.167 42.0252 34.3995 41.1068 34.9283L37.4553 36.9142H32.5962C31.5441 36.9128 30.5058 36.6749 29.558 36.2181L28.8896 35.8947C26.9865 34.9688 24.8644 34.5876 22.7581 34.7933C20.6518 34.999 18.6435 35.7836 16.9555 37.0603C16.9397 37.0724 16.9242 37.0845 16.9094 37.0982L15.2956 38.5348C14.6857 39.0765 13.9648 39.4783 13.1833 39.7122L12.2668 36.7035C12.2214 36.5546 12.1293 36.4242 12.0042 36.3315C11.8791 36.2389 11.7275 36.1889 11.5718 36.1889H3.76698C3.66414 36.1889 3.56248 36.2107 3.46871 36.2529C3.37494 36.2951 3.29119 36.3568 3.22302 36.4338C3.15484 36.5107 3.10379 36.6013 3.07323 36.6995C3.04267 36.7977 3.0333 36.9013 3.04574 37.0033L5.64732 58.3352C5.6688 58.5114 5.75401 58.6736 5.88688 58.7913C6.01975 58.9089 6.19108 58.9739 6.36856 58.9739H18.0752C18.1887 58.9739 18.3007 58.9473 18.4021 58.8962C18.5035 58.8451 18.5915 58.7709 18.6591 58.6797C18.7266 58.5884 18.7719 58.4826 18.7912 58.3707C18.8104 58.2589 18.8032 58.144 18.7701 58.0354L17.2322 52.9889L22.022 49.9616C22.6629 49.607 23.4147 49.5097 24.1248 49.6895C24.1398 49.6932 24.1549 49.6966 24.1702 49.6993L33.9133 51.4934C36.5611 51.9672 39.291 51.5818 41.7041 50.3934C41.7349 50.3782 41.7646 50.3608 41.793 50.3413L58.6448 38.7706C58.7975 38.6658 58.9044 38.5066 58.9436 38.3256C58.9829 38.1447 58.9515 37.9555 58.856 37.7969C58.2429 36.7756 57.2593 36.0303 56.1103 35.7161C54.9613 35.4019 53.7354 35.543 52.6879 36.1102ZM48.3628 36.38C49.2486 35.9364 50.3637 36.3 51.076 36.9797L44.6856 40.4273L44.3102 40.625C44.1079 40.0505 43.8122 39.5132 43.435 39.0349L48.3628 36.38ZM41.81 36.2001C41.8157 36.1969 41.8221 36.1937 41.8272 36.1903C42.3996 35.8595 43.0502 35.6883 43.7113 35.6945C44.3723 35.7007 45.0196 35.8841 45.5856 36.2257L42.3365 37.975C41.7171 37.5229 41.0104 37.2048 40.2612 37.041L41.81 36.2001ZM7.01132 57.5207L4.58763 37.642H11.0333L17.0941 57.5207H7.01132ZM41.0125 49.1131C38.8908 50.1459 36.4961 50.4786 34.1733 50.0634L24.4541 48.2737C23.3851 48.0097 22.2557 48.1628 21.2954 48.7017C21.2842 48.7079 21.2729 48.7147 21.2619 48.7217L16.7917 51.5477L13.6069 41.1032C14.589 40.8073 15.4947 40.3007 16.2609 39.619L17.852 38.2022C19.3261 37.0939 21.0775 36.4141 22.9132 36.2375C24.7489 36.0609 26.5978 36.3944 28.2561 37.2013L28.9244 37.5247C30.0696 38.0766 31.3242 38.3641 32.5954 38.3658H39.0769C40.0295 38.3671 40.9518 38.7001 41.6854 39.3076C42.4191 39.9151 42.9183 40.7591 43.0973 41.6946L38.3994 41.4821C36.6916 41.4054 34.9803 41.4844 33.2868 41.7184C33.0975 41.7465 32.9268 41.8482 32.812 42.0015C32.6972 42.1547 32.6476 42.3471 32.6738 42.5367C32.7001 42.7264 32.8002 42.898 32.9523 43.0143C33.1044 43.1306 33.2963 43.1821 33.4862 43.1577C35.0918 42.9358 36.7144 42.8609 38.3337 42.9339L43.8623 43.184C43.8733 43.184 43.8844 43.1847 43.8953 43.1847C44.088 43.1847 44.2728 43.1082 44.409 42.9719C44.5453 42.8356 44.6218 42.6508 44.6218 42.4581C44.6218 42.3406 44.6169 42.2241 44.6097 42.1082L45.3679 41.7086L53.3781 37.3884C53.9933 37.0553 54.7013 36.9347 55.392 37.0454C56.0828 37.1562 56.7176 37.492 57.1979 38.0007L41.0125 49.1131Z" fill="#4F86D9" fill-opacity="0.8"/>
<path d="M9.32108 54.515C9.32108 54.9674 9.45523 55.4096 9.70658 55.7858C9.95793 56.162 10.3152 56.4552 10.7332 56.6283C11.1511 56.8014 11.6111 56.8467 12.0548 56.7585C12.4985 56.6702 12.9061 56.4523 13.226 56.1324C13.5459 55.8125 13.7638 55.4049 13.852 54.9612C13.9403 54.5175 13.895 54.0576 13.7219 53.6396C13.5487 53.2216 13.2555 52.8644 12.8794 52.613C12.5032 52.3617 12.061 52.2275 11.6085 52.2275C11.0021 52.2282 10.4206 52.4694 9.9918 52.8982C9.56296 53.3271 9.32175 53.9085 9.32108 54.515ZM11.6085 53.6806C11.7736 53.6806 11.9349 53.7296 12.0721 53.8212C12.2093 53.9129 12.3162 54.0432 12.3794 54.1957C12.4425 54.3481 12.459 54.5159 12.4268 54.6777C12.3946 54.8396 12.3152 54.9882 12.1985 55.1049C12.0818 55.2216 11.9332 55.3011 11.7713 55.3333C11.6095 55.3655 11.4417 55.3489 11.2892 55.2858C11.1368 55.2226 11.0065 55.1157 10.9148 54.9785C10.8231 54.8413 10.7742 54.68 10.7742 54.515C10.7746 54.2938 10.8626 54.0819 11.019 53.9255C11.1754 53.7692 11.3874 53.6812 11.6085 53.6809V53.6806Z" fill="#4F86D9" fill-opacity="0.8"/>
<path d="M36.5245 10.9354V8.5411C36.5177 7.0829 35.9336 5.68675 34.9001 4.65806C33.8666 3.62936 32.4677 3.05185 31.0095 3.05185C29.5513 3.05185 28.1524 3.62936 27.1189 4.65806C26.0854 5.68675 25.5013 7.0829 25.4945 8.5411V10.9354C25.5013 12.3936 26.0854 13.7897 27.1189 14.8184C28.1524 15.8471 29.5513 16.4246 31.0095 16.4246C32.4677 16.4246 33.8666 15.8471 34.9001 14.8184C35.9336 13.7897 36.5177 12.3936 36.5245 10.9354ZM26.9476 10.9354V8.5411C26.9535 7.46766 27.384 6.44018 28.1451 5.6832C28.9062 4.92623 29.936 4.50131 31.0095 4.50131C32.083 4.50131 33.1128 4.92623 33.8739 5.6832C34.635 6.44018 35.0656 7.46766 35.0714 8.5411V10.9354C35.0656 12.0088 34.635 13.0363 33.8739 13.7933C33.1128 14.5502 32.083 14.9752 31.0095 14.9752C29.936 14.9752 28.9062 14.5502 28.1451 13.7933C27.384 13.0363 26.9535 12.0088 26.9476 10.9354Z" fill="#4F86D9" fill-opacity="0.8"/>
<path d="M22.12 31.4148H39.8992C40.0919 31.4148 40.2767 31.3382 40.4129 31.2019C40.5492 31.0657 40.6257 30.8809 40.6257 30.6882V29.0205H52.7969C52.9896 29.0205 53.1744 28.9439 53.3106 28.8077C53.4469 28.6714 53.5234 28.4866 53.5234 28.2939V23.578C53.5226 22.1943 52.9951 20.8627 52.0481 19.8538C51.101 18.8449 49.8054 18.2344 48.4244 18.1463C48.0369 18.1178 47.8377 18.3631 47.6762 18.5602C47.3547 18.9529 46.9479 19.2671 46.4866 19.4788C46.0254 19.6904 45.5219 19.794 45.0145 19.7816C44.5071 19.7693 44.0093 19.6412 43.5589 19.4073C43.1085 19.1733 42.7175 18.8396 42.4156 18.4317C42.3463 18.3378 42.2553 18.262 42.1504 18.2107C42.0456 18.1594 41.9299 18.1342 41.8132 18.1371C40.8694 18.1583 39.9477 18.4271 39.1405 18.9168C38.6076 18.2971 37.9558 17.7907 37.2236 17.4276C36.4914 17.0644 35.6938 16.8519 34.878 16.8026C34.5026 16.7874 34.3128 17.0152 34.1288 17.2385C33.7517 17.6995 33.2743 18.0682 32.733 18.3166C32.1917 18.5651 31.6009 18.6867 31.0055 18.6721C30.4101 18.6576 29.8259 18.5073 29.2974 18.2327C28.7689 17.9582 28.31 17.5666 27.9558 17.0878C27.8866 16.9938 27.7956 16.9179 27.6907 16.8666C27.5858 16.8153 27.4701 16.7902 27.3534 16.7933C25.76 16.8301 24.2448 17.4911 23.1339 18.6339C23.0421 18.7278 22.955 18.825 22.8701 18.9237C22.1199 18.4669 21.2696 18.2 20.3929 18.146C20.0067 18.1176 19.8061 18.3629 19.6447 18.5599C19.3232 18.9527 18.9164 19.2668 18.4552 19.4785C17.9939 19.6902 17.4904 19.7938 16.9831 19.7814C16.4757 19.769 15.9779 19.641 15.5275 19.407C15.0771 19.1731 14.6861 18.8394 14.3842 18.4314C14.3148 18.3377 14.2238 18.2619 14.1189 18.2107C14.0141 18.1594 13.8985 18.1341 13.7818 18.1368C12.3626 18.1729 11.0137 18.762 10.0226 19.7785C9.03154 20.795 8.47677 22.1584 8.47656 23.578V28.2939C8.47656 28.4866 8.55311 28.6714 8.68937 28.8077C8.82563 28.9439 9.01043 29.0205 9.20312 29.0205H21.3934V30.6882C21.3934 30.8809 21.4699 31.0657 21.6062 31.2019C21.7425 31.3382 21.9273 31.4148 22.12 31.4148ZM41.5029 19.6132C41.9509 20.1216 42.5016 20.5292 43.1188 20.8089C43.736 21.0887 44.4055 21.2343 45.0831 21.236C45.7607 21.2378 46.431 21.0957 47.0496 20.8192C47.6682 20.5427 48.2211 20.138 48.6717 19.632C49.6165 19.7745 50.4789 20.251 51.1025 20.975C51.726 21.699 52.0694 22.6225 52.0703 23.578V27.5674H40.6257V22.9063C40.6265 21.9388 40.3963 20.985 39.9543 20.1243C40.4291 19.8475 40.9566 19.6733 41.5029 19.6132ZM27.0402 18.2684C27.5426 18.85 28.164 19.3169 28.8624 19.6375C29.5609 19.9581 30.32 20.125 31.0885 20.1268C31.857 20.1287 32.6169 19.9654 33.3168 19.6481C34.0168 19.3308 34.6404 18.8669 35.1455 18.2877C36.2612 18.442 37.2834 18.9945 38.0236 19.8434C38.7638 20.6922 39.1721 21.7801 39.1731 22.9063V29.9616H22.8465V22.9063C22.8537 21.7531 23.2852 20.6429 24.0587 19.7875C24.8322 18.9321 25.8935 18.3913 27.0402 18.2684ZM9.92969 27.5674V23.578C9.93583 22.5991 10.2992 21.6561 10.9514 20.9261C11.6037 20.1962 12.5001 19.7295 13.4722 19.6137C13.9201 20.1219 14.4708 20.5294 15.0879 20.809C15.705 21.0886 16.3744 21.2341 17.0519 21.2359C17.7294 21.2376 18.3995 21.0955 19.018 20.819C19.6365 20.5425 20.1893 20.1379 20.6398 19.632C21.1401 19.7068 21.6214 19.8766 22.0578 20.1323C21.6198 20.9913 21.392 21.9421 21.3934 22.9063V27.5674H9.92969Z" fill="#4F86D9" fill-opacity="0.8"/>
<path d="M49.9335 13.0998V11.004C49.9335 9.69974 49.4154 8.44887 48.4931 7.52659C47.5708 6.60431 46.3199 6.08618 45.0156 6.08618C43.7113 6.08618 42.4605 6.60431 41.5382 7.52659C40.6159 8.44887 40.0978 9.69974 40.0978 11.004V13.0998C40.0978 14.4041 40.6159 15.655 41.5382 16.5773C42.4605 17.4995 43.7113 18.0177 45.0156 18.0177C46.3199 18.0177 47.5708 17.4995 48.4931 16.5773C49.4154 15.655 49.9335 14.4041 49.9335 13.0998ZM41.5509 13.0998V11.004C41.5509 10.0851 41.9159 9.20387 42.5657 8.5541C43.2155 7.90434 44.0967 7.53931 45.0156 7.53931C45.9345 7.53931 46.8158 7.90434 47.4656 8.5541C48.1153 9.20387 48.4804 10.0851 48.4804 11.004V13.0998C48.4804 14.0187 48.1153 14.9 47.4656 15.5497C46.8158 16.1995 45.9345 16.5645 45.0156 16.5645C44.0967 16.5645 43.2155 16.1995 42.5657 15.5497C41.9159 14.9 41.5509 14.0187 41.5509 13.0998Z" fill="#4F86D9" fill-opacity="0.8"/>
<path d="M21.9022 13.0998V11.004C21.9022 10.3582 21.775 9.71872 21.5279 9.12206C21.2807 8.5254 20.9185 7.98325 20.4618 7.52659C20.0051 7.06992 19.463 6.70768 18.8663 6.46053C18.2697 6.21339 17.6302 6.08618 16.9844 6.08618C16.3385 6.08618 15.699 6.21339 15.1024 6.46053C14.5057 6.70768 13.9636 7.06992 13.5069 7.52659C13.0502 7.98325 12.688 8.5254 12.4408 9.12206C12.1937 9.71872 12.0665 10.3582 12.0665 11.004V13.0998C12.0665 13.7456 12.1937 14.3851 12.4408 14.9818C12.688 15.5785 13.0502 16.1206 13.5069 16.5773C13.9636 17.0339 14.5057 17.3962 15.1024 17.6433C15.699 17.8905 16.3385 18.0177 16.9844 18.0177C17.6302 18.0177 18.2697 17.8905 18.8663 17.6433C19.463 17.3962 20.0051 17.0339 20.4618 16.5773C20.9185 16.1206 21.2807 15.5785 21.5279 14.9818C21.775 14.3851 21.9022 13.7456 21.9022 13.0998ZM13.5196 13.0998V11.004C13.5196 10.0851 13.8847 9.20387 14.5344 8.5541C15.1842 7.90434 16.0655 7.53931 16.9844 7.53931C17.9033 7.53931 18.7845 7.90434 19.4343 8.5541C20.0841 9.20387 20.4491 10.0851 20.4491 11.004V13.0998C20.4491 13.5548 20.3595 14.0053 20.1854 14.4257C20.0112 14.8461 19.756 15.228 19.4343 15.5497C19.1126 15.8715 18.7306 16.1267 18.3103 16.3008C17.8899 16.4749 17.4394 16.5645 16.9844 16.5645C16.5294 16.5645 16.0788 16.4749 15.6585 16.3008C15.2381 16.1267 14.8561 15.8715 14.5344 15.5497C14.2127 15.228 13.9575 14.8461 13.7834 14.4257C13.6092 14.0053 13.5196 13.5548 13.5196 13.0998Z" fill="#4F86D9" fill-opacity="0.8"/>
</svg>
